svg/fluentui-system-icons/ic_fluent_document_multiple_percent_20_regular.svg

<svg width="20" height="20" viewBox="0 0 20 20" fill="none" xmlns="http://www.w3.org/2000/svg">
<path d="M4 4C4 2.89543 4.89543 2 6 2H9.58579C9.98361 2 10.3651 2.15804 10.6464 2.43934L14.5607 6.35355C14.842 6.63486 15 7.01639 15 7.41421V14C15 15.1046 14.1046 16 13 16H10.8293C10.6976 15.6274 10.4944 15.2885 10.2361 15H13C13.5523 15 14 14.5523 14 14V8H10.5C9.67157 8 9 7.32843 9 6.5V3H6C5.44772 3 5 3.44772 5 4V9.76389C4.71145 9.50564 4.37262 9.30241 4 9.17071V4ZM10 3.20711V6.5C10 6.77614 10.2239 7 10.5 7H13.7929L10 3.20711ZM8 15C8.74028 15 9.38663 15.4022 9.73244 16C9.90261 16.2942 10 16.6357 10 17C10 17.3643 9.90261 17.7058 9.73244 18C9.38663 18.5978 8.74028 19 8 19C6.89543 19 6 18.1046 6 17C6 16.6357 6.09739 16.2942 6.26756 16C6.61337 15.4022 7.25972 15 8 15ZM7 17C7 17.5514 7.44621 17.9985 7.99721 18L8 18L8.00279 18C8.55379 17.9985 9 17.5514 9 17C9 16.4477 8.55228 16 8 16C7.44772 16 7 16.4477 7 17ZM11 17C11 17.3506 10.9398 17.6872 10.8293 18H13.0606C15.2363 18 17 16.2363 17 14.0606V9C17 8.44771 16.5523 8 16 8V14C16 15.6569 14.6569 17 13 17L11 17ZM2.85355 17.8536C2.65829 18.0488 2.34171 18.0488 2.14645 17.8536C1.95118 17.6583 1.95118 17.3417 2.14645 17.1464L8.14645 11.1464C8.34171 10.9512 8.65829 10.9512 8.85355 11.1464C9.04882 11.3417 9.04882 11.6583 8.85355 11.8536L2.85355 17.8536ZM5 12C5 12.7403 4.5978 13.3866 4 13.7324C3.70583 13.9026 3.36429 14 3 14C1.89543 14 1 13.1046 1 12C1 10.8954 1.89543 10 3 10C3.36429 10 3.70583 10.0974 4 10.2676C4.5978 10.6134 5 11.2597 5 12ZM4 12C4 11.4477 3.55228 11 3 11C2.44772 11 2 11.4477 2 12C2 12.5523 2.44772 13 3 13C3.55228 13 4 12.5523 4 12Z" fill="#212121"/>
</svg>

<svg xmlns="http://www.w3.org/2000/svg" width="20" height="20"><path d="M4 4a2 2 0 0 1 2-2h3.586a1.5 1.5 0 0 1 1.06.44l3.915 3.914A1.5 1.5 0 0 1 15 7.414V14a2 2 0 0 1-2 2h-2.17a2.997 2.997 0 0 0-.594-1H13a1 1 0 0 0 1-1V8h-3.5A1.5 1.5 0 0 1 9 6.5V3H6a1 1 0 0 0-1 1v5.764a2.998 2.998 0 0 0-1-.593V4Zm6-.793V6.5a.5.5 0 0 0 .5.5h3.293L10 3.207ZM8 15a2 2 0 1 1 .002 3.998A2 2 0 0 1 8 15Zm-1 2a1 1 0 0 0 .997 1h.006A1 1 0 1 0 7 17Zm4 0c0 .35-.06.687-.17 1h2.23A3.94 3.94 0 0 0 17 14.06V9a1 1 0 0 0-1-1v6a3 3 0 0 1-3 3h-2Zm-8.146.854a.5.5 0 0 1-.708-.708l6-6a.5.5 0 0 1 .708.708l-6 6ZM5 12a2 2 0 1 1-4 0 2 2 0 1 1 4 0Zm-1 0a1 1 0 1 0-2 0 1 1 0 0 0 2 0Z"/></svg>
